fs/border_top_20_filled.svg

<svg viewBox="0 0 20 20" fill="none" xmlns="http://www.w3.org/2000/svg" height="1em" width="1em">
  <path d="M12 16.25C12 16.6642 11.6642 17 11.25 17H8.75C8.33579 17 8 16.6642 8 16.25C8 15.8358 8.33579 15.5 8.75 15.5H11.25C11.6642 15.5 12 15.8358 12 16.25ZM8.73067 3.00024H6.00004C4.71001 3.00024 3.61016 3.81449 3.18638 4.95708H3.18954C3.02775 5.33829 3.20561 5.77848 3.58681 5.94029C3.96802 6.10211 4.40823 5.92425 4.57005 5.54303L4.57433 5.53275C4.58329 5.51074 4.59114 5.48855 4.59789 5.46623C4.8131 4.90147 5.35972 4.50024 6.00004 4.50024H14C14.634 4.50024 15.176 4.89348 15.3956 5.44932C15.4044 5.4808 15.4152 5.51206 15.4283 5.54295C15.5902 5.92416 16.0304 6.10202 16.4116 5.9402C16.7928 5.7784 16.9706 5.33827 16.8089 4.95708H16.8137C16.3899 3.81449 15.2901 3.00024 14 3.00024H11.2693C11.2629 3.00008 11.2565 3 11.25 3H8.75C8.74354 3 8.7371 3.00008 8.73067 3.00024ZM15.3956 14.551C15.2428 14.9377 14.934 15.2457 14.5466 15.3973C14.5166 15.4059 14.4868 15.4163 14.4573 15.4288C14.0761 15.5907 13.8983 16.0309 14.0601 16.4121C14.2219 16.7933 14.662 16.9711 15.0432 16.8094V16.8137C15.8609 16.5104 16.5104 15.8609 16.8137 15.0432H16.8089C16.9706 14.662 16.7928 14.2219 16.4116 14.0601C16.0304 13.8983 15.5902 14.0761 15.4283 14.4573C15.4152 14.4882 15.4044 14.5195 15.3956 14.551ZM5.45189 15.3973C5.06458 15.2457 4.75569 14.9377 4.6029 14.551C4.59417 14.5195 4.58329 14.4882 4.57019 14.4573C4.40837 14.0761 3.96816 13.8983 3.58694 14.0601C3.20577 14.2219 3.02791 14.662 3.18963 15.0432H3.18483C3.4881 15.8609 4.13764 16.5104 4.95533 16.8137V16.8094C5.33652 16.9711 5.77665 16.7933 5.93845 16.4121C6.10027 16.0309 5.92241 15.5907 5.54119 15.4288C5.51173 15.4163 5.48191 15.4059 5.45189 15.3973ZM17 8.75C17 8.33579 16.6642 8 16.25 8C15.8358 8 15.5 8.33579 15.5 8.75V11.25C15.5 11.6642 15.8358 12 16.25 12C16.6642 12 17 11.6642 17 11.25V8.75ZM3.75 8C4.16421 8 4.5 8.33579 4.5 8.75V11.25C4.5 11.6642 4.16421 12 3.75 12C3.33579 12 3 11.6642 3 11.25V8.75C3 8.33579 3.33579 8 3.75 8Z" fill="#212121"/>
</svg>

<svg viewBox="0 0 20 20" fill="none" xmlns="http://www.w3.org/2000/svg" height="1em" width="1em">
  <path d="M12 16.25a.75.75 0 0 1-.75.75h-2.5a.75.75 0 0 1 0-1.5h2.5a.75.75 0 0 1 .75.75ZM8.73 3H6c-1.29 0-2.39.814-2.814 1.957h.004a.75.75 0 0 0 1.38.586l.004-.01A1.5 1.5 0 0 1 6 4.5h8a1.5 1.5 0 0 1 1.396.95.75.75 0 1 0 1.413-.492h.005A3.001 3.001 0 0 0 14 3h-2.73a.77.77 0 0 0-.02 0H8.73Zm6.666 11.551a1.505 1.505 0 0 1-.939.878.75.75 0 0 0 .586 1.38v.005a3.01 3.01 0 0 0 1.77-1.77h-.004a.75.75 0 1 0-1.413-.493Zm-9.944.846a1.505 1.505 0 0 1-.85-.846.75.75 0 1 0-1.413.492h-.004a3.009 3.009 0 0 0 1.77 1.77v-.004a.75.75 0 1 0 .497-1.412ZM17 8.75a.75.75 0 0 0-1.5 0v2.5a.75.75 0 0 0 1.5 0v-2.5ZM3.75 8a.75.75 0 0 1 .75.75v2.5a.75.75 0 0 1-1.5 0v-2.5A.75.75 0 0 1 3.75 8Z" fill="#212121"/>
</svg>
